X:1
T:How Long Must We Wait?
T:C. T. Caldwell
T:How Long Must We Wait?
T:Public Domain
T:Public Domain
C:C. T. Caldwell
Z:Public Domain
%%score ( 1 2 ) ( 3 4 )
L:1/8
M:4/4
K:Eb
V:1 treble 
V:2 treble 
V:3 bass 
V:4 bass 
V:1
"^Duet" G2 EF G3 G | A2 (G^F) G4 | G2 F=E F G2 F | E2 A2 G4 | G2 EF G3 G | A3 A G3 G | %6
w: 1.~Long have we sought e-|ter- nal * life,|Years have we wait- ed in|sin and strife;|In dark- ness groped, sad|mis- ery’s mate, How|
w: 2.~You know the love of|God mani- * fold,|Ag- es have bro’t you their|grace un- told;|Peace and a hope, no|fear of fate. How|
w: 3.~The ag- ed faint and|long for~the * Friend,|Dark sha- dows ga- ther- ing|bring the end;|Fades now the light, ’tis|grow- ing late. How|
 F3 B =A2 GA | B6 ||"^Refrain" B2 | (B2 c2) z3 [EB] | [EB]2 [DA]>[^CG] [DA]2 z [FA] | %11
w: long? how long must we|wait?||||
w: long? how long must we|wait?|How|long? * how|long must we wait? How|
w: long? how long must we|wait?||||
 ([FA]2 [GB]2) z3 [FA] | [FA]2 [EG]>[E^F] [EG]3 [EG] | [GB][GB] [GB]>[FA] [EG]3 [EG] | %14
w: |||
w: long? * how|long must we wait? The|la- b’rers still are few; Our|
w: |||
 FF[=EG][EG] [FA]3 [FA] | [EG]2 z [EG] [DA]2 [DG]>[DF] | [B,E]6 z2 |] %17
w: |||
w: Lord has need of you, How|long must we wait? *||
w: |||
V:2
 x8 | x8 | x8 | x8 | x8 | x8 | x8 | x6 || x2 | x8 | x8 | x8 | x8 | x8 | FF x6 | x8 | x8 |] %17
w: |||||||||||||||||
w: ||||||||||||||long? how|||
V:3
 B,2 G,A, B,3 B, | C2 (B,=A,) B,4 | B,2 A,G, A, B,2 A, | G,2 C2 [E,B,]4 | B,2 G,A, B,3 B, | %5
 C3 _C B,3 E | D3 D C2 EE | [B,,B,D]6 || A,2 | (A,2 A,2) z3 [E,G,] | %10
 [B,,G,]2 [B,,F,]>[B,,=E,] [B,,F,]2 z2 | z4 z3 [B,,B,] | [E,B,]2 [E,B,]>[E,=A,] [E,B,]3 [E,B,] | %13
 [E,E][E,E] [E,E]>[E,B,] [E,B,]3 [E,B,] | [A,C][A,C][G,C][G,C] [F,C]3 [A,,_C] | %15
 [B,,B,]2 z [B,,B,] [B,,F,]2 [B,,B,]>[B,,A,] | [E,G,]6 z2 |] %17
V:4
 E,8 | E,8 | B,,8 | E,4 x4 | E,8 | E,8 | F,8 | x6 || x2 | x8 | x8 | x8 | x8 | x8 | x8 | x8 | x8 |] %17

